X: 1
T: Dovringens S\"oner
T: Reinlender av Anders Bjernulf
C: av Anders Bjernulf
S: Bruce Sagan's "scanfolk" session 2021-3-22
F: http://bluerose.karenlmyers.org/media/trans/1389.pdf
R: shottish
Z: 2021 John Chambers <jc:trillian.mit.edu>
M: C
L: 1/8
K: Dm
|:\
D>E FG A>G AB | G>F GA F2 D2- | D>E FA c>=B cd | B>A Bc A4 |
A>=B ^cd e>d ef | d>^c de c2 A2 | B>A Bd A>G FD | E>D (EF) D4 :|
|:\
D>E FG A2 d2 | B>A (G^F) G2- G(=F | E)>C EG c2- cd | c>G AB A2- AA |
d>e fe d2 A2 | B>c BA G>F ED | (^CE) (AE) (CE) (AE) | D>E (D/^C/E) D4 :|
